X:1
T:Cavatina alla polacca
T:Cavatina alla polacca
T:da "Linda di Chamounix"
T:Gaetano Donizetti
T:Public domain  - Library of Congress. Music Division. 
T:Public domain  - Library of Congress. Music Division. 
C:Gaetano Donizetti
Z:Public domain  - Library of Congress. Music Division.
%%score { 1 | ( 2 3 ) }
L:1/8
Q:1/4=116
M:3/4
K:C
V:1 treble nm="Piano" snm="Pno."
V:2 bass 
V:3 bass 
V:1
!p!"^Allegretto" z6 |!p! z .!2!e.!4!g.!+!c.!3!e.!+!G | (!2!A/B/A/^G/ !+!A) z z2 | %3
!p! z .!2!d.!4!f.!+!B.!3!d.!+!=G | (!2!A/B/A/^G/ !+!A) z z2 | z .e.g.c.e.A | %6
!<(! (A3/2d/4f/4 a3) g!<)! |!f! (!2!^f!3!g) (!1!e!2!=f) (!1!d!2!e/!1!d/) | !+!B2 z2 z2 | %9
!p! z .e.g.c.e.A | (A/B/A/^G/ A) z z2 | z .d.f.B.d.=G | (G/A/G/^F/ G) z z2 | %13
!<(! z (.!+!c.d.e.!+!=f.g)!<)! | (!>!!2!_a4 !1!_A) z |!p! z .!+!G.!2!c.!1!B.!4!e.!3!d | c2 z2 z2 | %17
 z .!2!B.^A.B.d.G | !2!=A/B/A/^G/ !+!A4 | z .!2!c.B.c.!4!_e.!+!A | (!2!A/B/A/^G/ !>!!+!A4) | %21
 z .!2!d.^c.d.!4!=f.B | (!2!=c/d/c/B/ !>!!+!c4) | z .!2!e.^d.e.g.^c | %24
!f! !+!d !>!!4!a2 !>!!3!g !>!!fermata!!2!^f !fermata!!1!=f | %25
!p! z .!2!e{!3!^f}.!4!g.!+!c.!3!e.!+!G | (!2!A/B/A/^G/ !+!A) z z2 | z .d.f.B.d.=G | %28
 (!2!G/A/G/^F/ !+!G) z z2 |"_cresc." z .!+!C.!1!E.!2!G.!+!A.!2!e | !+!!2!!4![ceg]6 | %31
!p!{!+!B!1!d} !4!g!3!^f!2!=f!1!d!+!A!1!B |"_cresc." .!2!c.!+!C.!1!E.!2!G.!+!c.!1!e | %33
 !2!g/a/g/^f/ g4- | g!3!^g!f! !fermata!!4!a>!+!B !fermata!!3!e>!2!d | !1!c2!p! z .!+!G.!1!^F.!+!G | %36
 (!4!=f/!2!d/!1!^c/!3!e/) .!2!d.!+!G.!1!^F.!+!G | (!4!g/e/^d/=f/) .e.!+!G.!1!^F.!+!G | %38
 (!4!=f/d/^c/!3!e/) !2!d/!<(!!+!G/!1!A/B/ !+!=c/d/e/f/!<)! |!f! !+!g4 ^g2 | %40
!<(! !^!!2!a2 !^!b2 !^!c'2!<)! |!ff! !4!c'3 !2!g!1!e!+!c | !4!a3 !3!g!2!e!+!c | %43
 !1!c[Bg]/[Bg]/ [Bg][Bg][Bg][Bg] | !1!!3![ce][Bg]/[Bg]/ [Bg][Bg][Bg][Bg] | %45
 [ce][dgb]/[dgb]/ [dgb][dgb][dgb][dgb] |!ff! [ec']!3!c'/!2!c'/ .!1!c'.!3!e'.!2!d'.!+!b | %47
 !1!c'!3!c'/!2!c'/ .!1!c'.!3!e'.!2!d'.!+!b | c'2 [egc']2 [egc']2 | [egc']4 !fermata!z2 |] %50
V:2
 C,[E,G,]C,[E,G,]C,[E,G,] | C,[E,G,]C,[E,G,]C,[E,G,] | G,,[A,,D,]G,,[A,,D,]G,,[A,,D,] | %3
 G,,[B,,D,F,]G,,[B,,D,F,]G,,[B,,D,F,] | C,[E,G,]C,[E,G,]C,[E,G,] | C,[E,G,]C,[E,G,]C,[E,G,] | %6
 F,[A,D]F,[A,D]F,[A,D] | G,[B,D]G,[B,D]G,[B,F] | .C.[EG].C.[EG] C z | C,[E,G,]C,[E,G,]C,[E,G,] | %10
 G,,[A,,D,]G,,[A,,D,]G,,[A,,D,] | G,,[B,,D,F,]G,,[B,,D,F,]G,,[B,,D,F,] | C,[E,G,]C,[E,G,]C,[E,G,] | %13
 E,[G,C]E,[G,C]E,[G,C] | F,[_A,_D]F,[A,D]F,[A,D] | G,[=DF]G,[=DF]G,[B,F] | C[EG]C[EG] C z | %17
 z [B,D][B,D][B,D][B,D][B,D] | G,[C_E^F][CEF][CEF][CEF][CEF] | G,[C_E^F][CEF][CEF][CEF][CEF] | %20
 z [D=F][DF][DF][DF][DF] | z [B,DF][B,DF][B,DF][B,DF][B,DF] | z [DF][DF][DF][DF][DF] | %23
 z [^A,^CE][A,CE][A,CE][A,CE][A,CE] | [G,B,DF]2 z2 !fermata!z2 | C,[E,G,]C,[E,G,]C,[E,G,] | %26
 G,,[A,,D,]G,,[A,,D,]G,,[A,,D,] | G,,[B,,D,F,]G,,[B,,D,F,]G,,[B,,D,F,] | C,[E,G,]C,[E,G,]C,[E,G,] | %29
 C, z [C,E,G,] z [C,E,G,] z | .G,,.[C,E,].G,,.[C,E,].G,,.[C,E,] | %31
 [G,,D,F,] z [G,,D,F,] z [G,,D,F,] z | [C,E,] z [C,E,G,] z [C,E,G,] z | %33
 G,,[C,E,]G,,[C,E,]G,,[C,E,] | [G,,D,F,]2 z2 z2 | .C,.[E,G,].C,.[E,G,].C,.[E,G,] | %36
 B,,[F,G,]B,,[F,G,]B,,[F,G,] | C,[E,G,]C,[E,G,]C,[E,G,] | B,,[F,G,]B,,[F,G,]B,,[F,G,] | %39
 E,[G,C]E,[G,C]E,[^G,C] | F,[A,C]F,[A,C]^F,[A,_E] | %41
 [G,C=E][G,CE]/[G,CE]/ [G,CE][G,CE][G,CE][G,CE] | %42
 [G,,B,,F,][G,,B,,F,]/[G,,B,,F,]/ [G,,B,,F,][G,,B,,F,][G,,B,,F,][G,,B,,F,] | %43
 [C,E,][G,,B,,F,]/[G,,B,,F,]/ [G,,B,,F,][G,,B,,F,][G,,B,,F,][G,,B,,F,] | %44
 [C,E,][G,,B,,F,]/[G,,B,,F,]/ [G,,B,,F,][G,,B,,F,][G,,B,,F,][G,,B,,F,] | %45
 [C,E,][G,,B,,F,]/[G,,B,,F,]/ [G,,B,,F,][G,,B,,F,][G,,B,,F,][G,,B,,F,] | [C,E,]G,[C,E,]G,[C,F,]G, | %47
 [C,E,]G,[C,E,]G,[C,F,]G, | [C,E,]2 [C,E,G,]2 [C,E,G,]2 | [C,E,G,]4 !fermata!z2 |] %50
V:3
 x6 | x6 | x6 | x6 | x6 | x6 | x6 | x6 | x6 | x6 | x6 | x6 | x6 | x6 | x6 | x6 | x6 | G,6 | x6 | %19
 x6 | G,6 | G,6 | G,6 | G,6 | x6 | x6 | x6 | x6 | x6 | x6 | x6 | x6 | x6 | x6 | x6 | x6 | x6 | x6 | %38
 x6 | x6 | x6 | x6 | x6 | x6 | x6 | x6 | x6 | x6 | x6 | x6 |] %50

